X: 44
T: No_4_We_Cannot_Turn_Back.krn
N: Derived from No_4_We_Cannot_Turn_Back.krn
%%abc-version 2.0
%%abcx-abcm2ps-target-version 5.9.1 (29 Sep 2008)
%%abc-creator hum2abc beta
%%abcx-conversion-date 2019/03/15 08:27:55
%%humdrum-veritas 3042974592
%%humdrum-veritas-data 3846775404
%%linebreak <none>
%%barnumbers 0
L: 1/8
M: 2/4
K: Eb clef=bass
[K:clef=bass][M:2/4]G/EG/ G/EC/ [I:setbarnb 2]| 
CCC2 | 
CC C3/C/ | 
C3z | 
E/CE/ E/CC/ | 
B,B,G,2 | 
G,G, G,3/G,/ | 
G,2G, z | 
C/B,C/ C/B,3/ | 
G,G, G,F, | 
G,G, B,3/G,/ | 
G,G, G,F, | 
G,G, G,3/G,/ | 
G,2G, z :|]  



